storage/app/icons/phosphoricons/thin/grid-nine-thin.svg

<svg xmlns="http://www.w3.org/2000/svg" fill="currentColor" viewBox="0 0 256 256"><path d="M216 52H40a12 12 0 0 0-12 12v128a12 12 0 0 0 12 12h176a12 12 0 0 0 12-12V64a12 12 0 0 0-12-12m-116 96v-40h56v40Zm56 8v40h-56v-40ZM36 108h56v40H36Zm64-8V60h56v40Zm64 8h56v40h-56Zm56-44v36h-56V60h52a4 4 0 0 1 4 4M40 60h52v40H36V64a4 4 0 0 1 4-4m-4 132v-36h56v40H40a4 4 0 0 1-4-4m180 4h-52v-40h56v36a4 4 0 0 1-4 4"/></svg>

<svg xmlns="http://www.w3.org/2000/svg" viewBox="0 0 256 256" fill="currentColor"><path d="M216,52H40A12,12,0,0,0,28,64V192a12,12,0,0,0,12,12H216a12,12,0,0,0,12-12V64A12,12,0,0,0,216,52ZM100,148V108h56v40Zm56,8v40H100V156ZM36,108H92v40H36Zm64-8V60h56v40Zm64,8h56v40H164Zm56-44v36H164V60h52A4,4,0,0,1,220,64ZM40,60H92v40H36V64A4,4,0,0,1,40,60ZM36,192V156H92v40H40A4,4,0,0,1,36,192Zm180,4H164V156h56v36A4,4,0,0,1,216,196Z"/></svg>
